public/img/ecosystem/lumen.min.svg

<svg height="54" viewBox="0 0 27 54" width="27" xmlns="http://www.w3.org/2000/svg"><g fill="#fff" fill-rule="evenodd"><path d="m26.041 3.94-23.551 10.982a1.596 1.596 0 0 1 -2.122-.773 1.596 1.596 0 0 1 .774-2.122l23.551-10.982a1.596 1.596 0 1 1 1.348 2.895zm0 6.787-23.551 10.982a1.596 1.596 0 0 1 -2.122-.774 1.596 1.596 0 0 1 .774-2.121l23.551-10.982a1.596 1.596 0 1 1 1.348 2.895zm0 6.636-23.551 10.982a1.596 1.596 0 0 1 -2.122-.773 1.596 1.596 0 0 1 .774-2.122l23.552-10.982a1.596 1.596 0 0 1 2.122.773 1.594 1.594 0 0 1 -.774 2.122zm.064 6.713-8.474 3.953a1.596 1.596 0 0 1 -2.121-.773 1.596 1.596 0 0 1 .773-2.122l8.474-3.953a1.596 1.596 0 1 1 1.348 2.895zm-12.739-20.782-10.877 5.071a1.596 1.596 0 0 1 -2.122-.773 1.596 1.596 0 0 1 .774-2.122l10.876-5.07a1.596 1.596 0 1 1 1.349 2.894z"/><path d="m18.552 26.588v9.35a1.598 1.598 0 0 1 -3.196 0v-9.35a1.598 1.598 0 0 1 3.196 0zm-6.554 1.85v9.35a1.598 1.598 0 0 1 -3.195 0v-9.35a1.598 1.598 0 0 1 3.195 0z"/><path d="m19.159 39.385h-10.864a2.556 2.556 0 0 1 -2.556-2.556v-1.599a.64.64 0 0 1 .639-.639h14.698a.64.64 0 0 1 .639.639v1.598a2.556 2.556 0 0 1 -2.556 2.556z"/><path d="m6.342 40.575 14.474-2.552.278 1.573-14.475 2.552zm-.001 3.959 14.475-2.552.277 1.573-14.473 2.552zm0 4.141 14.475-2.552.277 1.573-14.473 2.552zm1.463 3.557 11.549-2.036.277 1.573-11.548 2.036z"/></g></svg>

<svg width="27" height="54" viewBox="0 0 27 54" xmlns="http://www.w3.org/2000/svg"><title>lumen</title><g fill="#FFF" fill-rule="evenodd"><path d="M26.041 3.94L2.49 14.922a1.596 1.596 0 0 1-2.122-.773 1.596 1.596 0 0 1 .774-2.122L24.693 1.045a1.596 1.596 0 1 1 1.348 2.895zM26.041 10.727L2.49 21.709a1.596 1.596 0 0 1-2.122-.774 1.596 1.596 0 0 1 .774-2.121L24.693 7.832a1.596 1.596 0 1 1 1.348 2.895zM26.041 17.363L2.49 28.345a1.596 1.596 0 0 1-2.122-.773 1.596 1.596 0 0 1 .774-2.122l23.552-10.982a1.596 1.596 0 0 1 2.122.773 1.594 1.594 0 0 1-.774 2.122zM26.105 24.076l-8.474 3.953a1.596 1.596 0 0 1-2.121-.773 1.596 1.596 0 0 1 .773-2.122l8.474-3.953a1.596 1.596 0 1 1 1.348 2.895zM13.366 3.294L2.489 8.365a1.596 1.596 0 0 1-2.122-.773 1.596 1.596 0 0 1 .774-2.122L12.017.4a1.596 1.596 0 1 1 1.349 2.894z"/><path d="M18.552 26.588v9.35a1.598 1.598 0 0 1-3.196 0v-9.35a1.598 1.598 0 0 1 3.196 0zM11.998 28.438v9.35a1.598 1.598 0 0 1-3.195 0v-9.35a1.598 1.598 0 0 1 3.195 0z"/><path d="M19.159 39.385H8.295a2.556 2.556 0 0 1-2.556-2.556V35.23a.64.64 0 0 1 .639-.639h14.698a.64.64 0 0 1 .639.639v1.598a2.556 2.556 0 0 1-2.556 2.556z"/><path d="M6.342 40.575l14.474-2.552.278 1.573-14.475 2.552zM6.341 44.534l14.475-2.552.277 1.573L6.62 46.107zM6.341 48.675l14.475-2.552.277 1.573L6.62 50.248zM7.804 52.232l11.549-2.036.277 1.573-11.548 2.036z"/></g></svg>
